X: 18988
T: Inishowen, The
R: waltz
M: 3/4
K: Gmajor
G3 A Bc|dg- g2 a2|b3 a gf|ag d2 B2|c3 A Bc|dg- gg fg|a3 g fe|dc BA GF|
G3 A Bc|dg- g2 a2|b3 a gf|ag d2- dB|c2 DE FG|AB cd ef|g2 dc AF|G4:|
B2 GB DG|BG Bc de|c2 Gc Ec|gc bc gc|B2 GB DG|BG Bc de|A2 FA DD|ga ge dc|
B2 GB DG|BG Bc de|c2 Gc Ec|gc bc gc|B2 GB DG|Bc dB gd|bg dc AF|G4:|

